X:10
T:Polska i G-moll/G-dur efter John-Erik Mattson, Rätan
A:Rätan, S.Jämtland
O:Sweden
Z:Lennart Sohlman, Älta, Sweden
M:3/4
L:1/8
Q:1/4=140
K:Gm
G>e d3z|{cd}c>A (A<B) B2|A>c (3B(dB) A>^F|(^F<G) (GD) B,G,|\
G>e d3z|{cd}c.A/.A/ (A<B) B2|A>c (3B(dB) A.^F/.F/|(^F<G) G4:|\
K:G
G>B d2 g2|a2 b4|G>B d2 g2|f>a g>f e>d|AB (3c(ec) (3B(dB)|\
A>F G>D B,>D|(3C(EC) (3B,(DB,) A,>F|(3G(BG) D3z|\
G>B d2 g2|a2 b4|G>B d2 g2|f>a g>f e>d|AB (3c(ec) (3B(dB)|\
A>F G>D B,>D|(3C(EC) (3B,(DB,) A,>F|((3FEF) G4|]
